src/symbols/alphanum/1F197.svg

<svg id="emoji" viewBox="0 0 72 72" xmlns="http://www.w3.org/2000/svg">
  <g id="grid">
    <path fill="#b3b3b3" d="M68,4V68H4V4H68m4-4H0V72H72V0Z"/>
    <path fill="none" stroke="#00a5ff" stroke-miterlimit="10" stroke-width="0.1" d="M12.923,10.9583H59.0769A1.9231,1.9231,0,0,1,61,12.8814V59.0352a1.9231,1.9231,0,0,1-1.9231,1.9231H12.9231A1.9231,1.9231,0,0,1,11,59.0352V12.8813A1.923,1.923,0,0,1,12.923,10.9583Z"/>
    <rect x="16" y="4" rx="2.2537" width="40" height="64" fill="none" stroke="#00a5ff" stroke-miterlimit="10" stroke-width="0.1"/>
    <rect x="16" y="4" rx="2.2537" width="40" height="64" transform="translate(72) rotate(90)" fill="none" stroke="#00a5ff" stroke-miterlimit="10" stroke-width="0.1"/>
    <circle cx="36" cy="36" r="29" fill="none" stroke="#00a5ff" stroke-miterlimit="10" stroke-width="0.1"/>
  </g>
  <g id="color">
    <path fill="#d0cfce" stroke="none" stroke-miterlimit="10" stroke-width="2" d="M59.0349,60H12.9651 C12.4343,60,12,59.5657,12,59.0349V12.9651C12,12.4343,12.4343,12,12.9651,12h46.0698C59.5657,12,60,12.4343,60,12.9651v46.0698 C60,59.5657,59.5657,60,59.0349,60z"/>
  </g>
  <g id="hair"/>
  <g id="skin"/>
  <g id="skin-shadow"/>
  <g id="line">
    <path fill="none" stroke="#000000" stroke-miterlimit="10" stroke-width="2" d="M59.0349,60H12.9651 C12.4343,60,12,59.5657,12,59.0349V12.9651C12,12.4343,12.4343,12,12.9651,12h46.0698C59.5657,12,60,12.4343,60,12.9651v46.0698 C60,59.5657,59.5657,60,59.0349,60z"/>
    <line x1="39.0516" x2="39.0516" y1="31.1524" y2="40.5976" fill="none" stroke="#000000" stroke-linecap="round" stroke-linejoin="round" stroke-miterlimit="10" stroke-width="2"/>
    <line x1="39.0516" x2="44.4489" y1="37.2769" y2="31.1524" fill="none" stroke="#000000" stroke-linecap="round" stroke-linejoin="round" stroke-miterlimit="10" stroke-width="2"/>
    <line x1="41.6496" x2="44.8838" y1="34.3288" y2="40.5976" fill="none" stroke="#000000" stroke-linecap="round" stroke-linejoin="round" stroke-miterlimit="10" stroke-width="2"/>
    <path fill="none" stroke="#000000" stroke-linecap="round" stroke-linejoin="round" stroke-miterlimit="10" stroke-width="2" d="M31.4895,40.5976L31.4895,40.5976c-1.863,0-3.3733-1.5103-3.3733-3.3733v-2.6986c0-1.863,1.5103-3.3733,3.3733-3.3733l0,0 c1.863,0,3.3733,1.5103,3.3733,3.3733v2.6986C34.8628,39.0873,33.3525,40.5976,31.4895,40.5976z"/>
  </g>
</svg>

<svg viewBox="0 0 72 72" xmlns="http://www.w3.org/2000/svg"><path fill="#b3b3b3" d="M68 4v64H4V4h64m4-4H0v72h72V0z"/><path fill="none" stroke="#00a5ff" stroke-miterlimit="10" stroke-width=".1" d="M12.923 10.958h46.154A1.923 1.923 0 0161 12.881v46.154a1.923 1.923 0 01-1.923 1.923H12.923A1.923 1.923 0 0111 59.035V12.881a1.923 1.923 0 011.923-1.923z"/><rect x="16" y="4" rx="2.254" width="40" height="64" fill="none" stroke="#00a5ff" stroke-miterlimit="10" stroke-width=".1"/><rect x="16" y="4" rx="2.254" width="40" height="64" transform="rotate(90 36 36)" fill="none" stroke="#00a5ff" stroke-miterlimit="10" stroke-width=".1"/><circle cx="36" cy="36" r="29" fill="none" stroke="#00a5ff" stroke-miterlimit="10" stroke-width=".1"/><g stroke-linecap="round" stroke-miterlimit="10" stroke-width="6" stroke="#fff" fill="none" stroke-linejoin="round"><path d="M59.035 60h-46.07a.968.968 0 01-.965-.965v-46.07c0-.53.434-.965.965-.965h46.07c.53 0 .965.434.965.965v46.07c0 .53-.434.965-.965.965zM39.052 31.152v9.446m0-3.321l5.397-6.125m-2.799 3.177l3.234 6.269"/><path d="M31.49 40.598h0a3.373 3.373 0 01-3.374-3.374v-2.698a3.373 3.373 0 013.373-3.374h0a3.373 3.373 0 013.374 3.374v2.698a3.373 3.373 0 01-3.373 3.374z"/></g><path fill="#d0cfce" d="M59.035 60h-46.07a.968.968 0 01-.965-.965v-46.07c0-.53.434-.965.965-.965h46.07c.53 0 .965.434.965.965v46.07c0 .53-.434.965-.965.965z"/><g fill="none" stroke="#000" stroke-miterlimit="10" stroke-width="2"><path d="M59.035 60h-46.07a.968.968 0 01-.965-.965v-46.07c0-.53.434-.965.965-.965h46.07c.53 0 .965.434.965.965v46.07c0 .53-.434.965-.965.965z"/><path stroke-linecap="round" stroke-linejoin="round" d="M39.052 31.152v9.446m0-3.321l5.397-6.125m-2.799 3.177l3.234 6.269m-13.394 0h0a3.373 3.373 0 01-3.374-3.374v-2.698a3.373 3.373 0 013.373-3.374h0a3.373 3.373 0 013.374 3.374v2.698a3.373 3.373 0 01-3.373 3.374z"/></g></svg>
